X: 40412
T: Tom McElvogue's
R: slip jig
M: 9/8
K: Adorian
cAA cAA AGE|cAA cAA efd|
cAA cAA AGE|1 ~D3 DGA BGd:|2 ~D3 DGA B3||
cde gee fdd|cde gee ~f3|
cde gee f2d|edB cBA G3:|

